Sources/FrostedUI/Resources/Icons.xcassets/lockOpen16.imageset/lock-open-16.svg

<svg width="16" height="16" viewBox="0 0 16 16" fill="none" xmlns="http://www.w3.org/2000/svg" data-fui-icon="true">
  <path
    d="M8 0C10.44 0 12.4702 1.74746 12.9111 4.05859C12.9885 4.46524 12.722 4.85783 12.3154 4.93555C11.9086 5.01318 11.5151 4.74574 11.4375 4.33887C11.1288 2.72199 9.70642 1.5 8 1.5C6.067 1.5 4.5 3.067 4.5 5V6.5H12.25C13.7688 6.5 15 7.73122 15 9.25V13.25C15 14.7688 13.7688 16 12.25 16H3.75C2.23122 16 1 14.7688 1 13.25V9.25C1 7.9915 1.84614 6.93316 3 6.60645V5C3 2.23858 5.23858 0 8 0ZM3.75 8C3.05964 8 2.5 8.55964 2.5 9.25V13.25C2.5 13.9404 3.05964 14.5 3.75 14.5H12.25C12.9404 14.5 13.5 13.9404 13.5 13.25V9.25C13.5 8.55964 12.9404 8 12.25 8H3.75Z"
    fill="currentColor"
  />
</svg>

<svg xmlns="http://www.w3.org/2000/svg" width="16" height="16" fill="none" data-fui-icon="true" viewBox="0 0 16 16"><path fill="currentColor" d="M8 0c2.44 0 4.47 1.747 4.911 4.059a.75.75 0 1 1-1.473.28A3.501 3.501 0 0 0 4.5 5v1.5h7.75A2.75 2.75 0 0 1 15 9.25v4A2.75 2.75 0 0 1 12.25 16h-8.5A2.75 2.75 0 0 1 1 13.25v-4c0-1.258.846-2.317 2-2.644V5a5 5 0 0 1 5-5M3.75 8c-.69 0-1.25.56-1.25 1.25v4c0 .69.56 1.25 1.25 1.25h8.5c.69 0 1.25-.56 1.25-1.25v-4c0-.69-.56-1.25-1.25-1.25z"/></svg>
